!! 00000] TT[00
!! NN
!!!OTL: Si bao zhu zhu
!!!ARE: Asia, China, Shanxi, Qinyuan
!! Ethnic Group: Han
!! I, 313
!!!SCT: C0081
!!!YEM: Copyright 1995, estate of Helmut Schaffrath.
**kern
*ICvox
*Ivox
*M2/4
*k[f#]
*G:
{8a
4dd
8dd
=1
8dd
4b
8a
=2
8dd
4b
8a
=3
2g}
=4
{8g
4a
8b
=5
8a
4a
8g
=6
8a
4f#
8e
=7
2d}
=8
{8B
4d
8e
=9
8g
4g
8e
=10
8B
4d
8e
=11
2g}
=12
{8g
4a
8dd
=13
8a
4g
8e
=14
8B
4d
8e
=15
4.g
8a
=16
8e
4d
8B
=17
2A}
==
!!!AGN: Xiaodiao. Qiongfu duibi
!! Variante in I, 167
!!!ONB: ESAC (Essen Associative Code) Database: CHINA
!!!AMT: simple duple
!!!AIN: vox
!!!EED: Helmut Schaffrath
!!!EEV: 1.0
*-
